X:46DLFi
T:Davy Lowston (1)
F:http://www.folkinfo.org/songs
H:1813
M:2/2
L:1/8
K:G
D2D2|G3G G2G2|G3G F2A2|G4F2E2|D6D2|
B3B B2B2|B3B A2c2| B8-|B4G2B2|
d3d d2d2|d4A2B2|c B3A2A2|F4F2F2|
E8-|E4F2F2|E8-|E4E2E2|D8-|D6|]
